dist/assets/images/icons/arr-r.svg

<svg width="28" height="28" viewBox="0 0 28 28" fill="none" xmlns="http://www.w3.org/2000/svg">
<path d="M16.6574 21.4595C16.4496 21.4595 16.2418 21.3829 16.0777 21.2188C15.7605 20.9017 15.7605 20.3767 16.0777 20.0595L22.1371 14.0001L16.0777 7.94072C15.7605 7.62354 15.7605 7.09854 16.0777 6.78135C16.3949 6.46416 16.9199 6.46416 17.2371 6.78135L23.8762 13.4204C24.1934 13.7376 24.1934 14.2626 23.8762 14.5798L17.2371 21.2188C17.073 21.3829 16.8652 21.4595 16.6574 21.4595Z" fill="#101112"/>
<path d="M23.1109 14.8203H4.70312C4.25469 14.8203 3.88281 14.4484 3.88281 14C3.88281 13.5516 4.25469 13.1797 4.70312 13.1797H23.1109C23.5594 13.1797 23.9312 13.5516 23.9312 14C23.9312 14.4484 23.5594 14.8203 23.1109 14.8203Z" fill="#101112"/>
</svg>

<svg width="28" height="28" fill="none" xmlns="http://www.w3.org/2000/svg"><path d="M16.657 21.46a.811.811 0 01-.58-.241.825.825 0 010-1.16L22.138 14l-6.06-6.06a.825.825 0 010-1.159.825.825 0 011.16 0l6.64 6.64a.825.825 0 010 1.159l-6.64 6.639a.811.811 0 01-.58.24z" fill="#101112"/><path d="M23.11 14.82H4.704a.826.826 0 01-.82-.82c0-.448.372-.82.82-.82h18.408c.448 0 .82.372.82.82 0 .448-.372.82-.82.82z" fill="#101112"/></svg>
